suite-common/icons/assets/icons/calendar.svg

<svg width="24" height="24" viewBox="0 0 24 24" fill="none" xmlns="http://www.w3.org/2000/svg">
<path d="M19.7178 3.75H4.71777C4.30356 3.75 3.96777 4.08579 3.96777 4.5V19.5C3.96777 19.9142 4.30356 20.25 4.71777 20.25H19.7178C20.132 20.25 20.4678 19.9142 20.4678 19.5V4.5C20.4678 4.08579 20.132 3.75 19.7178 3.75Z" stroke="#171717" stroke-width="1.5" stroke-linecap="round" stroke-linejoin="round"/>
<path d="M16.7178 2.25V5.25" stroke="#171717" stroke-width="1.5" stroke-linecap="round" stroke-linejoin="round"/>
<path d="M7.71777 2.25V5.25" stroke="#171717" stroke-width="1.5" stroke-linecap="round" stroke-linejoin="round"/>
<path d="M3.96777 8.25H20.4678" stroke="#171717" stroke-width="1.5" stroke-linecap="round" stroke-linejoin="round"/>
</svg>

<svg xmlns="http://www.w3.org/2000/svg" fill="none" viewBox="0 0 24 24">
  <path stroke="#171717" stroke-linecap="round" stroke-linejoin="round" stroke-width="1.5" d="M19.718 3.75h-15a.75.75 0 0 0-.75.75v15c0 .414.336.75.75.75h15a.75.75 0 0 0 .75-.75v-15a.75.75 0 0 0-.75-.75m-3-1.5v3m-9-3v3m-3.75 3h16.5"/>
</svg>
